X: 1405
T: An Súisín Bán
R: hornpipe
M: 4/4
K: Gmajor
(3GAB|c2E2E2DE|G2AB c3A|BAGE DEFG|
A2AB A2dc|BAGE DEFA|G2G2G2Bd|
e2ef edef|gedB c3A|BAGE DEFG|
A2AB A2dc|BAGE DEFA|G2GF G2 Bd|
e2ef edef|gedB c3A|BAGE DEFG|
A2AB A2dc|BAGE DEFA|G2G2G2||

